usr/share/icons/biglinux-icons-material/scalable/apps/sigil.svg

<?xml version="1.0" encoding="UTF-8" standalone="no"?>
<svg
   width="24"
   height="24"
   viewBox="0 0 6.349875 6.349875"
   version="1.1"
   id="svg1"
   sodipodi:docname="sigil.svg"
   inkscape:version="1.3 (0e150ed6c4, 2023-07-21)"
   xmlns:inkscape="http://www.inkscape.org/namespaces/inkscape"
   xmlns:sodipodi="http://sodipodi.sourceforge.net/DTD/sodipodi-0.dtd"
   xmlns="http://www.w3.org/2000/svg"
   xmlns:svg="http://www.w3.org/2000/svg">
  <defs
     id="defs1">
    <radialGradient
       fx="0"
       fy="0"
       cx="0"
       cy="0"
       r="1"
       gradientUnits="userSpaceOnUse"
       gradientTransform="matrix(0,2.9103579,-2.9103579,0,3.1748149,0.26457418)"
       spreadMethod="pad"
       id="radialGradient41229-5">
      <stop
         style="stop-color:#ff8080;stop-opacity:1;"
         offset="0"
         id="stop41225-0" />
      <stop
         style="stop-color:#de4f4f;stop-opacity:1;"
         offset="1"
         id="stop41227-3" />
    </radialGradient>
  </defs>
  <sodipodi:namedview
     id="namedview1"
     pagecolor="#ffffff"
     bordercolor="#000000"
     borderopacity="0.25"
     inkscape:showpageshadow="2"
     inkscape:pageopacity="0.0"
     inkscape:pagecheckerboard="0"
     inkscape:deskcolor="#d1d1d1"
     inkscape:zoom="4.4801844"
     inkscape:cx="58.479736"
     inkscape:cy="-24.664164"
     inkscape:window-width="2560"
     inkscape:window-height="998"
     inkscape:window-x="0"
     inkscape:window-y="0"
     inkscape:window-maximized="1"
     inkscape:current-layer="svg1" />
  <path
     d="m 2.5380664,0.29490717 c 0.031749,0 0.062088,-0.004233 0.091015,-0.012347 0.3802869,-0.0250467 0.7605739,-0.0236357 1.1398025,0.002822 C 4.1131882,0.31289827 4.4465567,0.38733294 4.769342,0.50974441 5.3052008,0.73022618 5.6717297,1.1133353 5.8703397,1.6576607 5.9818153,1.9857375 6.0491945,2.3233392 6.070008,2.6690546 6.097524,3.1047266 6.087999,3.5386347 6.03967,3.9728955 6.0026287,4.277337 5.9239608,4.5694312 5.8026076,4.8505895 5.5778926,5.3384716 5.2127748,5.6746622 4.7086653,5.8591613 4.3005095,5.9970947 3.8803594,6.0701183 3.4475096,6.0771737 2.9624497,6.1032787 2.4816231,6.065885 2.0050297,5.9681675 1.1298053,5.7737908 0.58830211,5.239343 0.38440058,4.3655297 0.29761896,3.9728957 0.25740308,3.5746175 0.26586958,3.172106 0.25634477,2.7449005 0.30149943,2.3219283 0.40239189,1.9056587 0.61722932,1.0900526 1.1354497,0.58417925 1.9567001,0.38874421 2.1482547,0.34182569 2.3426314,0.31007632 2.5380664,0.29490717 Z"
     style="fill:url(#radialGradient41229-5);fill-rule:evenodd;stroke:none;stroke-width:0.352771"
     id="path41231" />
  <path
     d="M 2.4657163,1.9930615 C 2.6560328,1.7793158 3.0327009,1.6830762 3.312769,1.7324576 c 0.1784218,0.029196 0.2306867,0.033522 0.3874816,0.1445396 0.099844,-0.043614 0.193921,-0.052625 0.2991718,-0.058753 -0.025952,0.2126643 -0.015139,0.1935606 0.021627,0.3132293 0.028836,0.094437 0.039649,0.197165 -0.00288,0.2955673 -0.031359,0.074613 -0.052625,0.098402 -0.1002045,0.1524695 -0.04037,0.045416 -0.090112,0.069567 -0.1989673,0.08867 0.00721,-0.049381 0.018743,-0.082543 0.029917,-0.2360934 C 3.7662126,2.1941914 3.7002506,2.1707623 3.628161,2.0842548 3.4147758,1.8308599 3.0406308,1.7825598 2.7565978,1.9660279 2.619988,2.0536167 2.6001634,2.1567049 2.6073723,2.3203482 c 0.00505,0.1074135 0.107774,0.2101412 0.159318,0.2479882 0.1495859,0.1099367 0.3326935,0.1849099 0.4999414,0.2606039 0.061276,0.023069 0.3280076,0.1232732 0.3892838,0.1503068 0.08038,0.035324 0.1712128,0.085066 0.2155479,0.118948 0.131924,0.1002045 0.2101411,0.2032926 0.2551971,0.3233218 0.081822,0.2191524 0.093356,0.6466437 -0.1005649,0.8629125 C 3.8040596,4.5316967 3.4259497,4.637308 3.0910935,4.6297385 2.779306,4.6322617 2.7151463,4.5446728 2.256296,4.557649 2.2415176,4.4927683 2.2317855,4.3338108 2.2404363,4.30101 2.200787,4.2325249 2.1780788,4.1388084 2.1690676,3.9859785 2.1636609,3.8886575 2.1683467,3.8097194 2.2191699,3.6601335 2.2786438,3.4827931 2.4855409,3.3458228 2.675497,3.3278004 2.8391404,3.3299604 3.0031442,3.3530314 3.1368704,3.455399 3.2522138,3.54443 3.2774451,3.715282 3.2594227,3.8180097 3.2309477,3.9787695 3.1307428,4.1124957 2.9638554,4.1168211 2.8787894,4.1193411 2.7493888,4.0180581 2.7515515,3.9409225 2.7587615,3.6958178 3.0060278,3.7351067 3.0507233,3.7689888 c 0.036045,0.027755 0.07209,0.068485 0.057672,0.1430978 0.061276,-0.064881 0.1034486,-0.2094203 0.021627,-0.3027763 A 0.45308311,0.45308311 0 0 0 2.4624722,3.5804745 c -0.090112,0.097321 -0.057672,0.2667315 -0.038928,0.4008181 0.021627,0.1539113 0.1405747,0.277545 0.2642083,0.3802727 0.1175061,0.098042 0.256639,0.1268776 0.2934047,0.1297612 0.236814,0.014418 0.3355768,0.037847 0.5990642,-0.083264 C 3.7431439,4.332369 3.8336164,4.2473032 3.9082291,4.0277904 3.9284142,3.9683165 3.9230075,3.85045 3.8966948,3.7581753 3.8700216,3.6644589 3.8134313,3.5779513 3.7370163,3.5094662 3.5676057,3.3501482 3.3614295,3.2953601 3.1473234,3.2056086 2.9541233,3.1248682 2.8081419,3.0664757 2.6289992,2.9619456 2.5039238,2.8808448 2.4675185,2.8530903 2.3828132,2.7355843 2.3273042,2.6584484 2.2890968,2.4540744 2.3006311,2.3682878 2.3280251,2.2277131 2.3554192,2.1098466 2.4653558,1.9948637"
     fill="#ffffff"
     id="path2"
     style="stroke-width:1" />
</svg>

<svg xmlns="http://www.w3.org/2000/svg" width="24" height="24" viewBox="0 0 6.35 6.35"><defs><radialGradient id="a" cx="0" cy="0" r="1" fx="0" fy="0" gradientTransform="rotate(90 1.455 1.72) scale(2.91036)" gradientUnits="userSpaceOnUse" spreadMethod="pad"><stop offset="0" style="stop-color:#ff8080;stop-opacity:1"/><stop offset="1" style="stop-color:#de4f4f;stop-opacity:1"/></radialGradient></defs><path d="M2.538.295A.335.335 0 0 0 2.63.283c.38-.025.76-.024 1.14.002a3.62 3.62 0 0 1 1 .225c.536.22.903.603 1.101 1.148.112.328.18.665.2 1.011.028.436.018.87-.03 1.304a3.166 3.166 0 0 1-.237.878c-.225.487-.59.824-1.094 1.008a4.125 4.125 0 0 1-1.261.218 5.644 5.644 0 0 1-1.443-.109C1.13 5.774.588 5.24.385 4.366a5.025 5.025 0 0 1-.12-1.194c-.009-.427.036-.85.137-1.266C.617 1.09 1.135.584 1.957.389c.191-.047.386-.079.581-.094Z" style="fill:url(#a);fill-rule:evenodd;stroke:none;stroke-width:.352771"/><path fill="#fff" d="M2.466 1.993c.19-.214.567-.31.847-.26.178.029.23.033.387.144a.826.826 0 0 1 .3-.059c-.027.213-.016.194.021.313a.422.422 0 0 1-.003.296c-.031.075-.052.098-.1.153-.04.045-.09.07-.199.088.007-.05.019-.082.03-.236.017-.238-.049-.261-.12-.348a.666.666 0 0 0-.872-.118c-.137.088-.157.19-.15.354.005.108.108.21.16.248.15.11.332.185.5.26.06.024.328.124.389.151.08.036.171.085.215.12.132.1.21.202.256.323.081.219.093.646-.1.862-.223.248-.601.353-.936.346-.312.002-.376-.085-.835-.072A1.024 1.024 0 0 1 2.24 4.3c-.04-.068-.062-.162-.07-.315a.756.756 0 0 1 .05-.326c.059-.177.266-.314.455-.332.164.002.328.025.462.127.115.09.14.26.122.363-.028.16-.128.294-.295.299-.085.002-.215-.099-.212-.176.007-.245.254-.206.299-.172.036.028.072.068.057.143.062-.065.104-.21.022-.303a.453.453 0 0 0-.668-.029c-.09.098-.057.267-.038.401.021.154.14.278.264.38a.6.6 0 0 0 .293.13c.237.015.336.038.6-.083.162-.076.253-.16.327-.38a.542.542 0 0 0-.171-.519c-.17-.159-.376-.214-.59-.303-.193-.081-.339-.14-.518-.244a.699.699 0 0 1-.246-.226.714.714 0 0 1-.082-.368c.027-.14.054-.258.164-.373" style="stroke-width:1"/></svg>
